Adwaita++/mimetypes/16/application-x-glade.svg

<svg height="16" width="16" xmlns="http://www.w3.org/2000/svg">
  <path d="m.0078125.01367188v14.00000012l1.0410156-.019531.0390625-12.9394535h13.8964844l.01953 3.9589844h1.003906v-5.00000002zm4.5 3.00000002c-.8284271 0-1.5.6715729-1.5 1.5s.6715729 1.5 1.5 1.5 1.5-.6715729 1.5-1.5-.6715729-1.5-1.5-1.5zm2.5 1v1h4.9999995v-1zm-2.5 3c-.8284271 0-1.5.6715729-1.5 1.5-.0000001.8284272.6715728 1.5000001 1.5 1.5000001s1.5000001-.6715729 1.5-1.5000001c0-.8284271-.6715729-1.5-1.5-1.5zm11.4999995.6914062-13.9999995 8.3085939h13.9999995zm-8.9999995.3085938v1h4.9999995v-1zm8.0336785 1.9362859-.05712 4.9269952-8.8867188.152344z" fill="#474747"/>
</svg>

<svg xmlns="http://www.w3.org/2000/svg" width="16" height="16" version="1.1">
 <title id="title9167">
  Gnome Symbolic Icon Theme
 </title>
 <g id="layer9" transform="translate(-223.0002,-215)">
  <path style="fill:#474747" d="M 0.0078125,0.01367188 V 14.013672 L 1.0488281,13.994141 1.0878906,1.0546875 H 14.984375 l 0.01953,3.9589844 h 1.003906 V 0.01367188 Z m 4.5,3.00000002 c -0.8284271,0 -1.5,0.6715729 -1.5,1.5 0,0.8284271 0.6715729,1.5 1.5,1.5 0.8284271,0 1.5,-0.6715729 1.5,-1.5 0,-0.8284271 -0.6715729,-1.5 -1.5,-1.5 z m 2.5,1 v 1 h 4.9999995 v -1 z m -2.5,3 c -0.8284271,0 -1.5,0.6715729 -1.5,1.5 -10e-8,0.8284272 0.6715728,1.5000001 1.5,1.5000001 0.8284272,0 1.5000001,-0.6715729 1.5,-1.5000001 0,-0.8284271 -0.6715729,-1.5 -1.5,-1.5 z M 16.007812,7.7050781 2.0078125,16.013672 H 16.007812 Z M 7.0078125,8.0136719 v 1 h 4.9999995 v -1 z m 8.0336785,1.9362859 -0.05712,4.9269952 -8.8867188,0.152344 z" transform="translate(223.0002,215)"/>
 </g>
</svg>
